X: 25064
T: Maids Of Castlebar, The
R: reel
M: 4/4
K: Dmajor
ABc||dD (3DDD EDB,E|DEFA BAFA|d2cd (3Bcd AF|DEFD EDB,D|
DFFD EDB,E|DEFA BAFA|dfec dBAG|FAEG FDDc|
dD (3DDD EDB,E|DEFA BAFA|dDcD BDAF|DEFD EDB,D|
(3FFF FD EDB,E|DEFA BAFA|dfec dBAG|FAEG FDDc|
|:{^g}a2^ga fd (3ddd|fdad fddf|gebe ge (3eee|gebe geeg|
fa (3aaa abaf|gfec dcBA|Bcde (3f^ga ec|dBAG FDD2:|

